%
(CNC workshop tools first simulation file)
(Purpose: safe XY air-cut / simulator sanity check)
(Units: millimetres. Coordinates fit inside 120 x 80 mm.)
(No spindle command is included.)
(Tool remains at Z5.000 for the drawing moves if work zero is the surface.)
(For first real-machine use: verify in simulator, set Z zero safely, and run above stock.)
G21 (millimetres)
G90 (absolute coordinates)
G17 (XY plane)
G40 G49 G80 (cancel cutter comp, tool length comp, canned cycles)
G54 (work coordinate system)
G94 (feed per minute)
F800.0
G0 Z15.000
(Path 1)
G0 X0.000 Y0.000
G1 Z5.000 F200.0
G1 X120.000 Y0.000 F800.0
G1 X120.000 Y80.000 F800.0
G1 X0.000 Y80.000 F800.0
G1 X0.000 Y0.000 F800.0
G0 Z15.000
(Path 2)
G0 X0.000 Y0.000
G1 Z5.000 F200.0
G1 X120.000 Y80.000 F800.0
G0 Z15.000
(Path 3)
G0 X0.000 Y80.000
G1 Z5.000 F200.0
G1 X120.000 Y0.000 F800.0
G0 Z15.000
(Path 4)
G0 X20.000 Y20.000
G1 Z5.000 F200.0
G1 X100.000 Y20.000 F800.0
G1 X100.000 Y60.000 F800.0
G1 X20.000 Y60.000 F800.0
G1 X20.000 Y20.000 F800.0
G0 Z15.000
(Path 5)
G0 X78.000 Y40.000
G1 Z5.000 F200.0
G1 X77.932 Y41.569 F800.0
G1 X77.727 Y43.126 F800.0
G1 X77.387 Y44.659 F800.0
G1 X76.914 Y46.156 F800.0
G1 X76.314 Y47.607 F800.0
G1 X75.588 Y49.000 F800.0
G1 X74.745 Y50.324 F800.0
G1 X73.789 Y51.570 F800.0
G1 X72.728 Y52.728 F800.0
G1 X71.570 Y53.789 F800.0
G1 X70.324 Y54.745 F800.0
G1 X69.000 Y55.588 F800.0
G1 X67.607 Y56.314 F800.0
G1 X66.156 Y56.914 F800.0
G1 X64.659 Y57.387 F800.0
G1 X63.126 Y57.727 F800.0
G1 X61.569 Y57.932 F800.0
G1 X60.000 Y58.000 F800.0
G1 X58.431 Y57.932 F800.0
G1 X56.874 Y57.727 F800.0
G1 X55.341 Y57.387 F800.0
G1 X53.844 Y56.914 F800.0
G1 X52.393 Y56.314 F800.0
G1 X51.000 Y55.588 F800.0
G1 X49.676 Y54.745 F800.0
G1 X48.430 Y53.789 F800.0
G1 X47.272 Y52.728 F800.0
G1 X46.211 Y51.570 F800.0
G1 X45.255 Y50.324 F800.0
G1 X44.412 Y49.000 F800.0
G1 X43.686 Y47.607 F800.0
G1 X43.086 Y46.156 F800.0
G1 X42.613 Y44.659 F800.0
G1 X42.273 Y43.126 F800.0
G1 X42.068 Y41.569 F800.0
G1 X42.000 Y40.000 F800.0
G1 X42.068 Y38.431 F800.0
G1 X42.273 Y36.874 F800.0
G1 X42.613 Y35.341 F800.0
G1 X43.086 Y33.844 F800.0
G1 X43.686 Y32.393 F800.0
G1 X44.412 Y31.000 F800.0
G1 X45.255 Y29.676 F800.0
G1 X46.211 Y28.430 F800.0
G1 X47.272 Y27.272 F800.0
G1 X48.430 Y26.211 F800.0
G1 X49.676 Y25.255 F800.0
G1 X51.000 Y24.412 F800.0
G1 X52.393 Y23.686 F800.0
G1 X53.844 Y23.086 F800.0
G1 X55.341 Y22.613 F800.0
G1 X56.874 Y22.273 F800.0
G1 X58.431 Y22.068 F800.0
G1 X60.000 Y22.000 F800.0
G1 X61.569 Y22.068 F800.0
G1 X63.126 Y22.273 F800.0
G1 X64.659 Y22.613 F800.0
G1 X66.156 Y23.086 F800.0
G1 X67.607 Y23.686 F800.0
G1 X69.000 Y24.412 F800.0
G1 X70.324 Y25.255 F800.0
G1 X71.570 Y26.211 F800.0
G1 X72.728 Y27.272 F800.0
G1 X73.789 Y28.430 F800.0
G1 X74.745 Y29.676 F800.0
G1 X75.588 Y31.000 F800.0
G1 X76.314 Y32.393 F800.0
G1 X76.914 Y33.844 F800.0
G1 X77.387 Y35.341 F800.0
G1 X77.727 Y36.874 F800.0
G1 X77.932 Y38.431 F800.0
G1 X78.000 Y40.000 F800.0
G0 Z15.000
(Path 6)
G0 X44.000 Y40.000
G1 Z5.000 F200.0
G1 X76.000 Y40.000 F800.0
G0 Z15.000
(Path 7)
G0 X60.000 Y24.000
G1 Z5.000 F200.0
G1 X60.000 Y56.000 F800.0
G0 Z15.000
G0 X0.000 Y0.000
M2
%
